icons/developer-credentials-24.svg

<?xml version="1.0" encoding="UTF-8"?><svg id="icons" xmlns="http://www.w3.org/2000/svg" viewBox="0 0 24 24"><rect width="24" height="24" style="fill:none; stroke-width:0px;"/><path d="M9.90002,5.99963c-1.31708,0-2.50897.52832-3.39044,1.37659l-.75671-.67065c1.06573-1.05377,2.52997-1.70557,4.14716-1.70557,2.94513,0,5.37909,2.16022,5.82141,4.98114-.33722.22107-.65192.47327-.9375.75574-.08832-2.62518-2.23761-4.73724-4.88391-4.73724ZM8,13h3v-1h-3v1ZM2,6.44824c0-.68652.4043-1.30762,1.0293-1.58203l6.62988-2.91406c.2168-.0957.46777-.09277.68066-.00098l7.66016,3.36719v3.77197c.32599-.05505.65863-.09033,1-.09033v-4.33398L10.73926,1.03418c-.47168-.20312-1.00684-.2041-1.48047.00098L2.62695,3.9502c-.98828.43457-1.62695,1.41504-1.62695,2.49805v11.26562l7.77148,3.41663v-.40393c0-.22015.04437-.43384.11365-.63855l-6.88513-3.02649V6.44824ZM13,10h-5v1h5v-1ZM8,8v1h4v-1h-4ZM21,14.5c0,.82861-.67139,1.5-1.5,1.5s-1.5-.67139-1.5-1.5.67139-1.5,1.5-1.5,1.5.67139,1.5,1.5ZM20,14.5c0-.27539-.22461-.5-.5-.5s-.5.22461-.5.5.22461.5.5.5.5-.22461.5-.5ZM13.03436,15.63458c-.02203-.20868-.03436-.42017-.03436-.63458,0-.11853.01093-.23425.01776-.35107-.84985.70807-1.92761,1.15149-3.11774,1.15149-2.70215,0-4.90039-2.19824-4.90039-4.90039,0-.6593.13483-1.28674.37195-1.86139l-.78271-.69513c-.37347.77435-.58887,1.63928-.58887,2.55652,0,3.25842,2.64154,5.89996,5.90002,5.89996.91833,0,1.78418-.21588,2.5592-.59015l.57513-.57526ZM23,15c0,2.20856-1.79144,4-4,4-.30664,0-.60217-.04175-.88904-.10712l-.10706.10712h-1.00391v1l-.99512,1h-1.00488v1l-.98444.99017-.0224.00983h-2.99316v-2.27344l4.24591-4.39032c-.14966-.41974-.24591-.86517-.24591-1.33624,0-2.20862,1.79144-4,4-4s4,1.79138,4,4ZM22,15c0-1.6543-1.3457-3-3-3s-3,1.3457-3,3c0,.54993.15936,1.05896.4187,1.50262l-4.4187,4.59155v.90582h1.5918l.4082-.32611v-1.67389h2v-2h1.50507l.27197-.26672c.37445.16827.78656.26672,1.22296.26672,1.6543,0,3-1.3457,3-3Z" style="fill:#000; stroke-width:0px;"/></svg>

<svg xmlns="http://www.w3.org/2000/svg" viewBox="0 0 24 24"><path fill="none" stroke-width="0" d="M0 0h24v24H0z"/><path d="M9.9 6a4.876 4.876 0 0 0-3.39 1.376l-.757-.67A5.88 5.88 0 0 1 9.9 5c2.945 0 5.38 2.16 5.821 4.981a6.041 6.041 0 0 0-.937.756C14.696 8.112 12.546 6 9.9 6zM8 13h3v-1H8v1zM2 6.448c0-.686.404-1.307 1.03-1.582l6.63-2.914a.859.859 0 0 1 .68 0L18 5.317V9.09c.326-.055.659-.09 1-.09V4.666l-8.26-3.632a1.866 1.866 0 0 0-1.481.001L2.627 3.95A2.728 2.728 0 0 0 1 6.448v11.266l7.771 3.417v-.404c0-.22.045-.434.114-.639L2 17.062V6.448zM13 10H8v1h5v-1zM8 8v1h4V8H8zm13 6.5a1.5 1.5 0 1 1-3 0 1.5 1.5 0 0 1 3 0zm-1 0a.501.501 0 0 0-1 0 .501.501 0 0 0 1 0zm-6.966 1.135A6.039 6.039 0 0 1 13 15c0-.119.01-.234.018-.351-.85.708-1.928 1.151-3.118 1.151A4.906 4.906 0 0 1 5 10.9c0-.66.134-1.287.372-1.861l-.783-.695A5.866 5.866 0 0 0 4 10.9a5.9 5.9 0 0 0 5.9 5.9c.918 0 1.784-.216 2.56-.59l.574-.575zM23 15a4 4 0 0 1-4 4c-.307 0-.602-.042-.889-.107l-.107.107H17v1l-.995 1H15v1l-.984.99-.023.01H11v-2.273l4.246-4.39A3.961 3.961 0 0 1 15 15a4 4 0 0 1 8 0zm-1 0c0-1.654-1.346-3-3-3s-3 1.346-3 3c0 .55.16 1.059.419 1.503L12 21.094V22h1.592l.408-.326V20h2v-2h1.505l.272-.267c.374.169.787.267 1.223.267 1.654 0 3-1.346 3-3z" stroke-width="0"/></svg>
